Modules/BetterCms.Module.Root/Scss/assets/icons/date-picker-right.svg

<svg height="10" width="6" xmlns="http://www.w3.org/2000/svg" viewBox="0 0 6 10"><path fill="#0d7be3" opacity=".9" fill-rule="evenodd" d="m.23 8.72c-.31.29-.31.77 0 1.06.31.29.81.29 1.12 0l4.42-4.25c.31-.29.31-.77 0-1.06l-4.42-4.25c-.31-.29-.81-.29-1.12 0-.31.29-.31.77 0 1.06l3.63 3.72-3.63 3.72"/></svg>

<?xml version="1.0" encoding="utf-8"?>
<!-- Generator: Avocode 2.4.5 - http://avocode.com -->
<svg height="10" width="6" xmlns:xlink="http://www.w3.org/1999/xlink" xmlns="http://www.w3.org/2000/svg" viewBox="0 0 6 10">
    <path fill="#0d7be3" opacity="0.9" fill-rule="evenodd" d="M 0.23 8.72 C -0.08 9.01 -0.08 9.49 0.23 9.78 C 0.54 10.07 1.04 10.07 1.35 9.78 L 5.77 5.53 C 6.08 5.24 6.08 4.76 5.77 4.47 L 1.35 0.22 C 1.04 -0.07 0.54 -0.07 0.23 0.22 C -0.08 0.51 -0.08 0.99 0.23 1.28 L 3.86 5 L 0.23 8.72 Z M 0.23 8.72" />
</svg>
